usr/share/icons/biglinux-icons-material-dark/22/actions/node-type-auto-smooth.svg

<svg xmlns="http://www.w3.org/2000/svg" viewBox="0 0 22 22">
<defs id="defs3051">
<style id="current-color-scheme" type="text/css">
.ColorScheme-Text{color:#dedede}.ColorScheme-Highlight{color:#3daee9}
</style>
</defs>
<path d="M1 2a10 15 0 0 0 8 14.68v-1.043A9 14 0 0 1 2 2zm19 0a9 14 0 0 1-7 13.633v1.062A10 15 0 0 0 21 2zM1 15v3h3v-1h1v-1H4v-1zm17 0v1h-1v1h1v1h3v-3zM2 16h1v1H2zm4 0v1h1v-1zm9 0v1h1v-1zm4 0h1v1h-1z" class="ColorScheme-Text" style="fill:currentColor;fill-opacity:1;stroke:none"/>
<path d="M11 14a2.5 2.5 0 0 0-2.5 2.5A2.5 2.5 0 0 0 11 19a2.5 2.5 0 0 0 2.5-2.5A2.5 2.5 0 0 0 11 14m0 1a1.5 1.5 0 0 1 1.5 1.5A1.5 1.5 0 0 1 11 18a1.5 1.5 0 0 1-1.5-1.5A1.5 1.5 0 0 1 11 15" class="ColorScheme-Highlight" style="fill:currentColor;fill-opacity:1;stroke:none"/>
</svg>

<svg xmlns="http://www.w3.org/2000/svg" viewBox="0 0 22 22">
  <defs id="defs3051">
    <style type="text/css" id="current-color-scheme">
      .ColorScheme-Text {
        color:#dedede;
      }
      .ColorScheme-Highlight {
        color:#3daee9;
      }
      </style>
  </defs>
 <path 
     style="fill:currentColor;fill-opacity:1;stroke:none" 
     d="M 1 2 A 10 15 0 0 0 9 16.679688 L 9 15.636719 A 9 14 0 0 1 2 2 L 1 2 z M 20 2 A 9 14 0 0 1 13 15.632812 L 13 16.695312 A 10 15 0 0 0 21 2 L 20 2 z M 1 15 L 1 18 L 4 18 L 4 17 L 5 17 L 5 16 L 4 16 L 4 15 L 1 15 z M 18 15 L 18 16 L 17 16 L 17 17 L 18 17 L 18 18 L 21 18 L 21 15 L 18 15 z M 2 16 L 3 16 L 3 17 L 2 17 L 2 16 z M 6 16 L 6 17 L 7 17 L 7 16 L 6 16 z M 15 16 L 15 17 L 16 17 L 16 16 L 15 16 z M 19 16 L 20 16 L 20 17 L 19 17 L 19 16 z "
     class="ColorScheme-Text"
     />
 <path 
     style="fill:currentColor;fill-opacity:1;stroke:none" 
     d="M 11 14 A 2.5 2.5 0 0 0 8.5 16.5 A 2.5 2.5 0 0 0 11 19 A 2.5 2.5 0 0 0 13.5 16.5 A 2.5 2.5 0 0 0 11 14 z M 11 15 A 1.5 1.5 0 0 1 12.5 16.5 A 1.5 1.5 0 0 1 11 18 A 1.5 1.5 0 0 1 9.5 16.5 A 1.5 1.5 0 0 1 11 15 z "
     class="ColorScheme-Highlight"
     />
</svg>
